icons/modern/potato.svg

<svg width="32" height="32" viewBox="0 0 32 32" fill="none" xmlns="http://www.w3.org/2000/svg">
<path d="M22.8372 2.93155C18.6372 0.951551 13.6172 2.23155 10.8772 5.97155L5.63718 13.1116C1.68718 18.4916 3.63718 26.1416 9.67718 28.9816C15.0072 31.4916 21.3472 29.1716 23.8172 23.8316L27.5272 15.7916C29.7572 10.9516 27.6672 5.21155 22.8372 2.93155Z" fill="url(#paint0_radial_18_29094)"/>
<path d="M22.8372 2.93155C18.6372 0.951551 13.6172 2.23155 10.8772 5.97155L5.63718 13.1116C1.68718 18.4916 3.63718 26.1416 9.67718 28.9816C15.0072 31.4916 21.3472 29.1716 23.8172 23.8316L27.5272 15.7916C29.7572 10.9516 27.6672 5.21155 22.8372 2.93155Z" fill="url(#paint1_linear_18_29094)"/>
<path d="M19.0054 16C20.107 16 21 15.107 21 14.0054C21 12.9039 20.107 12.0109 19.0054 12.0109C17.9039 12.0109 17.0109 12.9039 17.0109 14.0054C17.0109 15.107 17.9039 16 19.0054 16Z" fill="url(#paint2_radial_18_29094)"/>
<path d="M9.45801 19C10.2924 19 10.9688 18.3284 10.9688 17.5C10.9688 16.6716 10.2924 16 9.45801 16C8.62365 16 7.94727 16.6716 7.94727 17.5C7.94727 18.3284 8.62365 19 9.45801 19Z" fill="url(#paint3_radial_18_29094)"/>
<path d="M10.9687 25.0632C11.5555 25.0632 12.0312 24.5875 12.0312 24.0006C12.0312 23.4138 11.5555 22.9381 10.9687 22.9381C10.3818 22.9381 9.90613 23.4138 9.90613 24.0006C9.90613 24.5875 10.3818 25.0632 10.9687 25.0632Z" fill="url(#paint4_radial_18_29094)"/>
<path d="M23.4833 15.9466C23.9431 16.2122 24.562 16.0016 24.8656 15.4761C25.1692 14.9506 25.0425 14.3092 24.5827 14.0435C24.1228 13.7779 23.5039 13.9885 23.2003 14.514C22.8967 15.0395 23.0234 15.6809 23.4833 15.9466Z" fill="url(#paint5_radial_18_29094)"/>
<path d="M19.5179 7.98486C20.3365 7.98486 21 7.32132 21 6.50281C21 5.68429 20.3365 5.02075 19.5179 5.02075C18.6994 5.02075 18.0359 5.68429 18.0359 6.50281C18.0359 7.32132 18.6994 7.98486 19.5179 7.98486Z" fill="url(#paint6_radial_18_29094)"/>
<defs>
<radialGradient id="paint0_radial_18_29094" cx="0" cy="0" r="1" gradientUnits="userSpaceOnUse" gradientTransform="translate(27 7.125) rotate(126.229) scale(31.302 31.302)">
<stop stop-color="#FFE7BB"/>
<stop offset="0.399343" stop-color="#EAB994"/>
<stop offset="0.657157" stop-color="#DD977F"/>
<stop offset="0.78124" stop-color="#D27E76"/>
<stop offset="0.885055" stop-color="#C96A6F"/>
</radialGradient>
<linearGradient id="paint1_linear_18_29094" x1="5.375" y1="8.75" x2="14.625" y2="12.875" gradientUnits="userSpaceOnUse">
<stop stop-color="#AB8261"/>
<stop offset="1" stop-color="#AE8462" stop-opacity="0"/>
</linearGradient>
<radialGradient id="paint2_radial_18_29094" cx="0" cy="0" r="1" gradientUnits="userSpaceOnUse" gradientTransform="translate(17.75 14.9375) rotate(-31.6075) scale(3.81608)">
<stop offset="0.0563304" stop-color="#DC9B66"/>
<stop offset="0.506438" stop-color="#CC7D4F"/>
<stop offset="1" stop-color="#CA7544"/>
</radialGradient>
<radialGradient id="paint3_radial_18_29094" cx="0" cy="0" r="1" gradientUnits="userSpaceOnUse" gradientTransform="translate(8.5 18.0313) rotate(-20.9849) scale(2.4433 2.4608)">
<stop stop-color="#BB8056"/>
<stop offset="1" stop-color="#B0693C"/>
</radialGradient>
<radialGradient id="paint4_radial_18_29094" cx="0" cy="0" r="1" gradientUnits="userSpaceOnUse" gradientTransform="translate(10.4063 24.7187) rotate(-30.5072) scale(1.41458)">
<stop stop-color="#C5805E"/>
<stop offset="1" stop-color="#B9663B"/>
</radialGradient>
<radialGradient id="paint5_radial_18_29094" cx="0" cy="0" r="1" gradientUnits="userSpaceOnUse" gradientTransform="translate(23.625 15.75) rotate(-42.6467) scale(1.61445 1.70191)">
<stop offset="0.0563304" stop-color="#DC9B66"/>
<stop offset="0.852005" stop-color="#CA7544"/>
</radialGradient>
<radialGradient id="paint6_radial_18_29094" cx="0" cy="0" r="1" gradientUnits="userSpaceOnUse" gradientTransform="translate(18.2812 6.50281) rotate(12.263) scale(2.78223 3.26298)">
<stop offset="0.0563304" stop-color="#DC9B66"/>
<stop offset="0.852005" stop-color="#C97C34"/>
</radialGradient>
</defs>
</svg>

<svg width="32" height="32" fill="none" xmlns="http://www.w3.org/2000/svg"><path d="M22.837 2.932c-4.2-1.98-9.22-.7-11.96 3.04l-5.24 7.14c-3.95 5.38-2 13.03 4.04 15.87 5.33 2.51 11.67.19 14.14-5.15l3.71-8.04c2.23-4.84.14-10.58-4.69-12.86Z" fill="url(#a)"/><path d="M22.837 2.932c-4.2-1.98-9.22-.7-11.96 3.04l-5.24 7.14c-3.95 5.38-2 13.03 4.04 15.87 5.33 2.51 11.67.19 14.14-5.15l3.71-8.04c2.23-4.84.14-10.58-4.69-12.86Z" fill="url(#b)"/><path d="M19.005 16a1.995 1.995 0 1 0 0-3.99 1.995 1.995 0 0 0 0 3.99Z" fill="url(#c)"/><path d="M9.458 19c.834 0 1.51-.672 1.51-1.5s-.676-1.5-1.51-1.5-1.51.672-1.51 1.5.676 1.5 1.51 1.5Z" fill="url(#d)"/><path d="M10.969 25.063a1.063 1.063 0 1 0 0-2.125 1.063 1.063 0 0 0 0 2.125Z" fill="url(#e)"/><path d="M23.483 15.947c.46.265 1.079.055 1.383-.47.303-.526.177-1.168-.283-1.434-.46-.265-1.08-.054-1.383.471-.303.526-.177 1.167.283 1.433Z" fill="url(#f)"/><path d="M19.518 7.985a1.482 1.482 0 1 0 0-2.964 1.482 1.482 0 0 0 0 2.964Z" fill="url(#g)"/><defs><radialGradient id="a" cx="0" cy="0" r="1" gradientUnits="userSpaceOnUse" gradientTransform="rotate(126.229 11.694 10.407) scale(31.302)"><stop stop-color="#FFE7BB"/><stop offset=".399" stop-color="#EAB994"/><stop offset=".657" stop-color="#DD977F"/><stop offset=".781" stop-color="#D27E76"/><stop offset=".885" stop-color="#C96A6F"/></radialGradient><radialGradient id="c" cx="0" cy="0" r="1" gradientUnits="userSpaceOnUse" gradientTransform="matrix(3.25 -2 2 3.25 17.75 14.938)"><stop offset=".056" stop-color="#DC9B66"/><stop offset=".506" stop-color="#CC7D4F"/><stop offset="1" stop-color="#CA7544"/></radialGradient><radialGradient id="d" cx="0" cy="0" r="1" gradientUnits="userSpaceOnUse" gradientTransform="matrix(2.28125 -.875 .88127 2.29759 8.5 18.031)"><stop stop-color="#BB8056"/><stop offset="1" stop-color="#B0693C"/></radialGradient><radialGradient id="e" cx="0" cy="0" r="1" gradientUnits="userSpaceOnUse" gradientTransform="rotate(-30.507 50.525 -6.72) scale(1.41458)"><stop stop-color="#C5805E"/><stop offset="1" stop-color="#B9663B"/></radialGradient><radialGradient id="f" cx="0" cy="0" r="1" gradientUnits="userSpaceOnUse" gradientTransform="matrix(1.1875 -1.09375 1.153 1.25183 23.625 15.75)"><stop offset=".056" stop-color="#DC9B66"/><stop offset=".852" stop-color="#CA7544"/></radialGradient><radialGradient id="g" cx="0" cy="0" r="1" gradientUnits="userSpaceOnUse" gradientTransform="matrix(2.71875 .59094 -.69305 3.18853 18.281 6.503)"><stop offset=".056" stop-color="#DC9B66"/><stop offset=".852" stop-color="#C97C34"/></radialGradient><linearGradient id="b" x1="5.375" y1="8.75" x2="14.625" y2="12.875" gradientUnits="userSpaceOnUse"><stop stop-color="#AB8261"/><stop offset="1" stop-color="#AE8462" stop-opacity="0"/></linearGradient></defs></svg>
